; G-Code generated by Simplify3D(R) Version 4.1.2
; Sep 3, 2020 at 10:42:01 AM
; Settings Summary
;   processName,Process1
;   applyToModels,MB_knob
;   profileName,Creality Ender 3 Pro (modified)
;   profileVersion,2020-08-02 08:40:33
;   baseProfile,
;   printMaterial,PLA
;   printQuality,Medium
;   printExtruders,
;   extruderName,Primary Extruder
;   extruderToolheadNumber,0
;   extruderDiameter,0.4
;   extruderAutoWidth,0
;   extruderWidth,0.4
;   extrusionMultiplier,1
;   extruderUseRetract,1
;   extruderRetractionDistance,5
;   extruderExtraRestartDistance,0.1
;   extruderRetractionZLift,0
;   extruderRetractionSpeed,3600
;   extruderUseCoasting,1
;   extruderCoastingDistance,0.1
;   extruderUseWipe,0
;   extruderWipeDistance,5
;   primaryExtruder,0
;   layerHeight,0.2
;   topSolidLayers,3
;   bottomSolidLayers,3
;   perimeterOutlines,3
;   printPerimetersInsideOut,1
;   startPointOption,2
;   startPointOriginX,0
;   startPointOriginY,0
;   sequentialIslands,0
;   spiralVaseMode,0
;   firstLayerHeightPercentage,120
;   firstLayerWidthPercentage,150
;   firstLayerUnderspeed,0.5
;   useRaft,0
;   raftExtruder,0
;   raftTopLayers,3
;   raftBaseLayers,2
;   raftOffset,3
;   raftSeparationDistance,0.14
;   raftTopInfill,100
;   aboveRaftSpeedMultiplier,0.2
;   useSkirt,1
;   skirtExtruder,0
;   skirtLayers,1
;   skirtOutlines,3
;   skirtOffset,4
;   usePrimePillar,0
;   primePillarExtruder,999
;   primePillarWidth,12
;   primePillarLocation,7
;   primePillarSpeedMultiplier,1
;   useOozeShield,0
;   oozeShieldExtruder,999
;   oozeShieldOffset,2
;   oozeShieldOutlines,1
;   oozeShieldSidewallShape,1
;   oozeShieldSidewallAngle,30
;   oozeShieldSpeedMultiplier,1
;   infillExtruder,0
;   internalInfillPattern,Fast Honeycomb
;   externalInfillPattern,Rectilinear
;   infillPercentage,20
;   outlineOverlapPercentage,15
;   infillExtrusionWidthPercentage,100
;   minInfillLength,5
;   infillLayerInterval,1
;   internalInfillAngles,0
;   overlapInternalInfillAngles,0
;   externalInfillAngles,45,-45
;   generateSupport,1
;   supportExtruder,0
;   supportInfillPercentage,15
;   supportExtraInflation,0
;   supportBaseLayers,2
;   denseSupportExtruder,0
;   denseSupportLayers,0
;   denseSupportInfillPercentage,70
;   supportLayerInterval,1
;   supportHorizontalPartOffset,0.3
;   supportUpperSeparationLayers,1
;   supportLowerSeparationLayers,1
;   supportType,1
;   supportGridSpacing,4
;   maxOverhangAngle,55
;   supportAngles,0
;   temperatureName,Primary Extruder,Heated Bed
;   temperatureNumber,0,0
;   temperatureSetpointCount,1,1
;   temperatureSetpointLayers,1,1
;   temperatureSetpointTemperatures,205,60
;   temperatureStabilizeAtStartup,1,1
;   temperatureHeatedBed,0,1
;   fanLayers,1,3
;   fanSpeeds,0,100
;   blipFanToFullPower,0
;   adjustSpeedForCooling,1
;   minSpeedLayerTime,15
;   minCoolingSpeedSlowdown,20
;   increaseFanForCooling,0
;   minFanLayerTime,45
;   maxCoolingFanSpeed,100
;   increaseFanForBridging,0
;   bridgingFanSpeed,100
;   use5D,1
;   relativeEdistances,0
;   allowEaxisZeroing,1
;   independentExtruderAxes,0
;   includeM10123,0
;   stickySupport,1
;   applyToolheadOffsets,0
;   gcodeXoffset,0
;   gcodeYoffset,0
;   gcodeZoffset,0
;   overrideMachineDefinition,1
;   machineTypeOverride,0
;   strokeXoverride,220
;   strokeYoverride,220
;   strokeZoverride,250
;   originOffsetXoverride,-5
;   originOffsetYoverride,-5
;   originOffsetZoverride,0
;   homeXdirOverride,-1
;   homeYdirOverride,-1
;   homeZdirOverride,-1
;   flipXoverride,1
;   flipYoverride,-1
;   flipZoverride,1
;   toolheadOffsets,0,0|0,0|0,0|0,0|0,0|0,0
;   overrideFirmwareConfiguration,1
;   firmwareTypeOverride,RepRap (Marlin/Repetier/Sprinter)
;   GPXconfigOverride,r2
;   baudRateOverride,115200
;   overridePrinterModels,1
;   printerModelsOverride
;   startingGcode,G28 ; home all axes,G1 X5 Y10 Z0.2 F3000 ; get ready to prime,G92 E0 ; reset extrusion distance,G1 X160 E15 F600 ; prime nozzle,G1 X180 F5000 ; quick wipe
;   layerChangeGcode,
;   retractionGcode,
;   toolChangeGcode,
;   endingGcode,G28 X0 ; home X axis,M106 S0 ; turn off cooling fan,M104 S0 ; turn off extruder,M140 S0 ; turn off bed,M84 ; disable motors
;   exportFileFormat,gcode
;   celebration,0
;   celebrationSong,Random Song
;   postProcessing,
;   defaultSpeed,2400
;   outlineUnderspeed,0.5
;   solidInfillUnderspeed,0.8
;   supportUnderspeed,0.8
;   rapidXYspeed,9000
;   rapidZspeed,1000
;   minBridgingArea,50
;   bridgingExtraInflation,0
;   bridgingExtrusionMultiplier,1
;   bridgingSpeedMultiplier,1
;   useFixedBridgingAngle,0
;   fixedBridgingAngle,0
;   applyBridgingToPerimeters,0
;   filamentDiameters,1.75|1.75|1.75|1.75|1.75|1.75
;   filamentPricesPerKg,24|46|46|46|46|46
;   filamentDensities,1.25|1.25|1.25|1.25|1.25|1.25
;   useMinPrintHeight,0
;   minPrintHeight,0
;   useMaxPrintHeight,0
;   maxPrintHeight,9.52
;   useDiaphragm,0
;   diaphragmLayerInterval,20
;   robustSlicing,1
;   mergeAllIntoSolid,0
;   onlyRetractWhenCrossingOutline,1
;   retractBetweenLayers,1
;   useRetractionMinTravel,0
;   retractionMinTravel,3
;   retractWhileWiping,1
;   onlyWipeOutlines,1
;   avoidCrossingOutline,1
;   maxMovementDetourFactor,3
;   toolChangeRetractionDistance,12
;   toolChangeExtraRestartDistance,-0.5
;   toolChangeRetractionSpeed,600
;   externalThinWallType,0
;   internalThinWallType,2
;   thinWallAllowedOverlapPercentage,10
;   singleExtrusionMinLength,1
;   singleExtrusionMinPrintingWidthPercentage,50
;   singleExtrusionMaxPrintingWidthPercentage,200
;   singleExtrusionEndpointExtension,0.2
;   horizontalSizeCompensation,0
G90
M82
M106 S0
M140 S60
M190 S60
M104 S205 T0
M109 S205 T0
G28 ; home all axes
G1 X5 Y10 Z0.2 F3000 ; get ready to prime
G92 E0 ; reset extrusion distance
G1 X160 E15 F600 ; prime nozzle
G1 X180 F5000 ; quick wipe
; process Process1
; layer 1, Z = 0.240
T0
G92 E0.0000
G1 E-5.0000 F3600
; feature skirt
; tool H0.240 W0.600
G1 Z0.240 F1000
G1 X91.280 Y94.502 F9000
G1 E0.1000 F3600
G92 E0.0000
G1 X94.502 Y91.280 E0.2728 F1200
G1 X99.280 Y91.280 E0.5588
G1 X99.280 Y90.502 E0.6054
G1 X102.502 Y87.280 E0.8782
G1 X127.498 Y87.280 E2.3747
G1 X130.720 Y90.502 E2.6475
G1 X130.720 Y91.280 E2.6941
G1 X135.498 Y91.280 E2.9801
G1 X138.720 Y94.502 E3.2529
G1 X138.720 Y99.280 E3.5390
G1 X139.498 Y99.280 E3.5856
G1 X142.720 Y102.502 E3.8583
G1 X142.720 Y127.498 E5.3548
G1 X139.498 Y130.720 E5.6276
G1 X138.720 Y130.720 E5.6742
G1 X138.720 Y135.498 E5.9603
G1 X135.498 Y138.720 E6.2330
G1 X130.720 Y138.720 E6.5191
G1 X130.720 Y139.498 E6.5657
G1 X127.498 Y142.720 E6.8385
G1 X102.502 Y142.720 E8.3350
G1 X99.280 Y139.498 E8.6077
G1 X99.280 Y138.720 E8.6543
G1 X94.502 Y138.720 E8.9404
G1 X91.280 Y135.498 E9.2132
G1 X91.280 Y130.720 E9.4992
G1 X90.502 Y130.720 E9.5458
G1 X87.280 Y127.498 E9.8186
G1 X87.280 Y102.502 E11.3151
G1 X90.502 Y99.280 E11.5879
G1 X91.280 Y99.280 E11.6344
G1 X91.280 Y94.502 E11.9205
G92 E0.0000
G1 E-5.0000 F3600
G1 X91.880 Y94.750 F9000
G1 E0.1000 F3600
G92 E0.0000
G1 X94.750 Y91.880 E0.2430 F1200
G1 X99.880 Y91.880 E0.5501
G1 X99.880 Y90.750 E0.6178
G1 X102.750 Y87.880 E0.8608
G1 X127.250 Y87.880 E2.3275
G1 X130.120 Y90.750 E2.5705
G1 X130.120 Y91.880 E2.6382
G1 X135.250 Y91.880 E2.9453
G1 X138.120 Y94.750 E3.1883
G1 X138.120 Y99.880 E3.4954
G1 X139.250 Y99.880 E3.5630
G1 X142.120 Y102.750 E3.8060
G1 X142.120 Y127.250 E5.2728
G1 X139.250 Y130.120 E5.5158
G1 X138.120 Y130.120 E5.5834
G1 X138.120 Y135.250 E5.8905
G1 X135.250 Y138.120 E6.1335
G1 X130.120 Y138.120 E6.4407
G1 X130.120 Y139.250 E6.5083
G1 X127.250 Y142.120 E6.7513
G1 X102.750 Y142.120 E8.2180
G1 X99.880 Y139.250 E8.4611
G1 X99.880 Y138.120 E8.5287
G1 X94.750 Y138.120 E8.8358
G1 X91.880 Y135.250 E9.0788
G1 X91.880 Y130.120 E9.3859
G1 X90.750 Y130.120 E9.4535
G1 X87.880 Y127.250 E9.6966
G1 X87.880 Y102.750 E11.1633
G1 X90.750 Y99.880 E11.4063
G1 X91.880 Y99.880 E11.4740
G1 X91.880 Y94.750 E11.7811
G92 E0.0000
G1 E-5.0000 F3600
G1 X92.480 Y94.999 F9000
G1 E0.1000 F3600
G92 E0.0000
G1 X94.999 Y92.480 E0.2133 F1200
G1 X100.480 Y92.480 E0.5414
G1 X100.480 Y90.999 E0.6301
G1 X102.999 Y88.480 E0.8433
G1 X127.001 Y88.480 E2.2803
G1 X129.520 Y90.999 E2.4936
G1 X129.520 Y92.480 E2.5823
G1 X135.001 Y92.480 E2.9104
G1 X137.520 Y94.999 E3.1237
G1 X137.520 Y100.480 E3.4518
G1 X139.001 Y100.480 E3.5405
G1 X141.520 Y102.999 E3.7537
G1 X141.520 Y127.001 E5.1907
G1 X139.001 Y129.520 E5.4040
G1 X137.520 Y129.520 E5.4927
G1 X137.520 Y135.001 E5.8208
G1 X135.001 Y137.520 E6.0341
G1 X129.520 Y137.520 E6.3622
G1 X129.520 Y139.001 E6.4509
G1 X127.001 Y141.520 E6.6641
G1 X102.999 Y141.520 E8.1011
G1 X100.480 Y139.001 E8.3144
G1 X100.480 Y137.520 E8.4031
G1 X94.999 Y137.520 E8.7312
G1 X92.480 Y135.001 E8.9445
G1 X92.480 Y129.520 E9.2726
G1 X90.999 Y129.520 E9.3613
G1 X88.480 Y127.001 E9.5745
G1 X88.480 Y102.999 E11.0115
G1 X90.999 Y100.480 E11.2248
G1 X92.480 Y100.480 E11.3135
G1 X92.480 Y94.999 E11.6416
G92 E0.0000
G1 E-5.0000 F3600
; feature inner perimeter
G1 X111.342 Y111.820 F9000
G1 X111.352 Y111.809
G1 X112.249 Y112.608
G1 E0.1000 F3600
G92 E0.0000
G1 X112.518 Y112.329 E0.0232 F900
G1 X112.755 Y112.127 E0.0419
G1 X113.009 Y111.946 E0.0606
G1 X113.345 Y111.752 E0.0838
G1 X113.699 Y111.594 E0.1070
G1 X113.995 Y111.495 E0.1257
G1 X114.366 Y111.410 E0.1485
G1 X114.746 Y111.363 E0.1714
G1 X115.134 Y111.356 E0.1946
G1 X115.444 Y111.381 E0.2133
G1 X115.752 Y111.432 E0.2319
G1 X116.127 Y111.533 E0.2551
G1 X116.489 Y111.672 E0.2784
G1 X116.762 Y111.808 E0.2966
G1 X117.091 Y112.014 E0.3199
G1 X117.392 Y112.249 E0.3427
G1 X117.671 Y112.518 E0.3660
G1 X117.873 Y112.755 E0.3846
G1 X118.054 Y113.009 E0.4033
G1 X118.248 Y113.345 E0.4265
G1 X118.406 Y113.699 E0.4497
G1 X118.505 Y113.995 E0.4684
G1 X118.590 Y114.366 E0.4912
G1 X118.637 Y114.746 E0.5141
G1 X118.644 Y115.134 E0.5373
G1 X118.619 Y115.444 E0.5560
G1 X118.568 Y115.752 E0.5746
G1 X118.467 Y116.127 E0.5979
G1 X118.328 Y116.489 E0.6211
G1 X118.192 Y116.762 E0.6394
G1 X117.986 Y117.091 E0.6626
G1 X117.751 Y117.392 E0.6854
G1 X117.482 Y117.671 E0.7087
G1 X117.245 Y117.873 E0.7273
G1 X116.991 Y118.054 E0.7460
G1 X116.655 Y118.248 E0.7692
G1 X116.301 Y118.406 E0.7924
G1 X116.005 Y118.505 E0.8111
G1 X115.634 Y118.590 E0.8339
G1 X115.254 Y118.637 E0.8568
G1 X114.866 Y118.644 E0.8800
G1 X114.556 Y118.619 E0.8987
G1 X114.248 Y118.568 E0.9173
G1 X113.873 Y118.467 E0.9406
G1 X113.511 Y118.328 E0.9638
G1 X113.238 Y118.192 E0.9821
G1 X112.909 Y117.986 E1.0053
G1 X112.608 Y117.751 E1.0282
G1 X112.329 Y117.482 E1.0514
G1 X112.127 Y117.245 E1.0701
G1 X111.946 Y116.991 E1.0887
G1 X111.752 Y116.655 E1.1119
G1 X111.594 Y116.301 E1.1352
G1 X111.495 Y116.006 E1.1538
G1 X111.421 Y115.695 E1.1729
G1 X111.368 Y115.318 E1.1957
G1 X111.355 Y114.936 E1.2186
G1 X111.382 Y114.549 E1.2418
G1 X111.432 Y114.248 E1.2601
G1 X111.533 Y113.873 E1.2833
G1 X111.672 Y113.511 E1.3066
G1 X111.808 Y113.238 E1.3248
G1 X112.014 Y112.909 E1.3480
G1 X112.187 Y112.687 E1.3649
G1 X112.249 Y112.608 F900
G1 X111.795 Y112.214 F9000
G92 E0.0000
G1 X112.107 Y111.891 E0.0269 F900
G1 X112.385 Y111.653 E0.0488
G1 X112.684 Y111.440 E0.0707
G1 X113.072 Y111.216 E0.0976
G1 X113.482 Y111.034 E0.1244
G1 X113.833 Y110.917 E0.1466
G1 X114.262 Y110.818 E0.1730
G1 X114.704 Y110.764 E0.1996
G1 X115.152 Y110.756 E0.2264
G1 X115.518 Y110.785 E0.2484
G1 X115.879 Y110.845 E0.2703
G1 X116.312 Y110.961 E0.2972
G1 X116.731 Y111.122 E0.3240
G1 X117.055 Y111.284 E0.3457
G1 X117.436 Y111.521 E0.3726
G1 X117.786 Y111.795 E0.3992
G1 X118.109 Y112.107 E0.4260
G1 X118.347 Y112.385 E0.4480
G1 X118.560 Y112.684 E0.4699
G1 X118.784 Y113.072 E0.4968
G1 X118.966 Y113.482 E0.5236
G1 X119.083 Y113.833 E0.5458
G1 X119.182 Y114.262 E0.5722
G1 X119.236 Y114.704 E0.5988
G1 X119.244 Y115.152 E0.6256
G1 X119.215 Y115.518 E0.6476
G1 X119.155 Y115.879 E0.6695
G1 X119.039 Y116.312 E0.6964
G1 X118.878 Y116.731 E0.7232
G1 X118.716 Y117.055 E0.7449
G1 X118.479 Y117.436 E0.7718
G1 X118.205 Y117.786 E0.7984
G1 X117.893 Y118.109 E0.8252
G1 X117.615 Y118.347 E0.8472
G1 X117.316 Y118.560 E0.8691
G1 X116.928 Y118.784 E0.8960
G1 X116.518 Y118.966 E0.9228
G1 X116.167 Y119.083 E0.9450
G1 X115.738 Y119.182 E0.9714
G1 X115.296 Y119.236 E0.9980
G1 X114.848 Y119.244 E1.0248
G1 X114.482 Y119.215 E1.0468
G1 X114.121 Y119.155 E1.0687
G1 X113.688 Y119.039 E1.0956
G1 X113.269 Y118.878 E1.1224
G1 X112.945 Y118.716 E1.1441
G1 X112.564 Y118.479 E1.1710
G1 X112.214 Y118.205 E1.1976
G1 X111.891 Y117.893 E1.2244
G1 X111.653 Y117.615 E1.2464
G1 X111.440 Y117.316 E1.2683
G1 X111.216 Y116.928 E1.2952
G1 X111.034 Y116.518 E1.3220
G1 X110.918 Y116.171 E1.3439
G1 X110.831 Y115.807 E1.3663
G1 X110.770 Y115.370 E1.3927
G1 X110.754 Y114.926 E1.4194
G1 X110.785 Y114.479 E1.4462
G1 X110.845 Y114.121 E1.4679
G1 X110.961 Y113.688 E1.4948
G1 X111.122 Y113.269 E1.5216
G1 X111.284 Y112.945 E1.5433
G1 X111.521 Y112.564 E1.5702
G1 X111.734 Y112.293 E1.5908
G1 X111.795 Y112.214 F900
; feature outer perimeter
G1 X111.342 Y111.820 F9000
G92 E0.0000
G1 X111.695 Y111.454 E0.0305 F600
G1 X112.016 Y111.180 E0.0557
G1 X112.359 Y110.935 E0.0809
G1 X112.799 Y110.681 E0.1114
G1 X113.264 Y110.474 E0.1418
G1 X113.670 Y110.339 E0.1675
G1 X114.158 Y110.226 E0.1975
G1 X114.662 Y110.164 E0.2278
G1 X115.170 Y110.156 E0.2583
G1 X115.591 Y110.189 E0.2835
G1 X116.007 Y110.258 E0.3088
G1 X116.498 Y110.390 E0.3392
G1 X116.973 Y110.572 E0.3697
G1 X117.349 Y110.760 E0.3948
G1 X117.780 Y111.029 E0.4253
G1 X118.180 Y111.342 E0.4557
G1 X118.546 Y111.695 E0.4861
G1 X118.820 Y112.016 E0.5114
G1 X119.065 Y112.359 E0.5366
G1 X119.319 Y112.799 E0.5670
G1 X119.526 Y113.264 E0.5975
G1 X119.661 Y113.670 E0.6231
G1 X119.774 Y114.158 E0.6531
G1 X119.836 Y114.662 E0.6835
G1 X119.844 Y115.170 E0.7140
G1 X119.811 Y115.591 E0.7392
G1 X119.742 Y116.007 E0.7644
G1 X119.610 Y116.498 E0.7949
G1 X119.428 Y116.973 E0.8253
G1 X119.240 Y117.349 E0.8505
G1 X118.971 Y117.780 E0.8810
G1 X118.658 Y118.180 E0.9113
G1 X118.305 Y118.546 E0.9418
G1 X117.984 Y118.820 E0.9670
G1 X117.641 Y119.065 E0.9923
G1 X117.201 Y119.319 E1.0227
G1 X116.736 Y119.526 E1.0532
G1 X116.330 Y119.661 E1.0788
G1 X115.842 Y119.774 E1.1088
G1 X115.338 Y119.836 E1.1392
G1 X114.829 Y119.844 E1.1696
G1 X114.409 Y119.811 E1.1948
G1 X113.993 Y119.742 E1.2201
G1 X113.502 Y119.610 E1.2505
G1 X113.027 Y119.428 E1.2810
G1 X112.651 Y119.240 E1.3062
G1 X112.220 Y118.971 E1.3366
G1 X111.820 Y118.658 E1.3670
G1 X111.454 Y118.305 E1.3975
G1 X111.180 Y117.984 E1.4227
G1 X110.935 Y117.641 E1.4479
G1 X110.681 Y117.201 E1.4784
G1 X110.474 Y116.736 E1.5088
G1 X110.340 Y116.336 E1.5341
G1 X110.240 Y115.918 E1.5598
G1 X110.171 Y115.423 E1.5898
G1 X110.153 Y114.915 E1.6201
G1 X110.189 Y114.408 E1.6506
G1 X110.258 Y113.993 E1.6758
G1 X110.390 Y113.502 E1.7062
G1 X110.572 Y113.027 E1.7367
G1 X110.760 Y112.651 E1.7618
G1 X111.029 Y112.220 E1.7923
G1 X111.280 Y111.899 E1.8167
G1 X111.342 Y111.820 F600
; feature solid layer
G1 X116.480 Y112.237 F9000
G92 E0.0000
G1 X117.758 Y113.515 E0.1082 F960
G1 X117.793 Y113.577 E0.1125
G1 X117.930 Y113.884 E0.1326
G1 X118.013 Y114.134 E0.1483
G1 X118.087 Y114.455 E0.1681
G1 X118.121 Y114.726 E0.1845
G1 X115.273 Y111.879 E0.4256
G1 X115.118 Y111.867 E0.4349
G1 X114.781 Y111.873 E0.4550
G1 X114.458 Y111.912 E0.4745
G1 X118.086 Y115.540 E0.7817
G1 X118.069 Y115.643 E0.7880
G1 X117.982 Y115.969 E0.8081
G1 X117.894 Y116.197 E0.8228
G1 X113.803 Y112.106 E1.1691
G1 X113.577 Y112.207 E1.1840
G1 X113.285 Y112.375 E1.2041
G1 X113.249 Y112.401 E1.2068
G1 X117.598 Y116.750 E1.5750
G1 X117.568 Y116.798 E1.5784
G1 X117.366 Y117.057 E1.5980
G1 X117.214 Y117.214 E1.6111
G1 X112.786 Y112.786 E1.9860
G1 X112.634 Y112.943 E1.9991
G1 X112.432 Y113.202 E2.0188
G1 X112.402 Y113.250 E2.0222
G1 X116.751 Y117.599 E2.3904
G1 X116.715 Y117.625 E2.3931
G1 X116.423 Y117.793 E2.4132
G1 X116.197 Y117.894 E2.4281
G1 X112.106 Y113.803 E2.7744
G1 X112.018 Y114.031 E2.7890
G1 X111.931 Y114.357 E2.8092
G1 X111.914 Y114.460 E2.8155
G1 X115.542 Y118.088 E3.1226
G1 X115.219 Y118.127 E3.1421
G1 X114.882 Y118.133 E3.1623
G1 X114.727 Y118.121 E3.1716
