; G-Code generated by Simplify3D(R) Version 4.1.2
; Sep 3, 2020 at 9:07:12 AM
; Settings Summary
;   processName,Process1
;   applyToModels,MB_mic_cup_v1
;   profileName,Creality Ender 3 Pro (modified)
;   profileVersion,2020-08-02 08:40:33
;   baseProfile,
;   printMaterial,PLA
;   printQuality,Medium
;   printExtruders,
;   extruderName,Primary Extruder
;   extruderToolheadNumber,0
;   extruderDiameter,0.4
;   extruderAutoWidth,0
;   extruderWidth,0.4
;   extrusionMultiplier,1
;   extruderUseRetract,1
;   extruderRetractionDistance,5
;   extruderExtraRestartDistance,0.1
;   extruderRetractionZLift,0
;   extruderRetractionSpeed,3600
;   extruderUseCoasting,1
;   extruderCoastingDistance,0.1
;   extruderUseWipe,0
;   extruderWipeDistance,5
;   primaryExtruder,0
;   layerHeight,0.2
;   topSolidLayers,3
;   bottomSolidLayers,3
;   perimeterOutlines,3
;   printPerimetersInsideOut,1
;   startPointOption,2
;   startPointOriginX,0
;   startPointOriginY,0
;   sequentialIslands,0
;   spiralVaseMode,0
;   firstLayerHeightPercentage,120
;   firstLayerWidthPercentage,150
;   firstLayerUnderspeed,0.5
;   useRaft,0
;   raftExtruder,0
;   raftTopLayers,3
;   raftBaseLayers,2
;   raftOffset,3
;   raftSeparationDistance,0.14
;   raftTopInfill,100
;   aboveRaftSpeedMultiplier,0.2
;   useSkirt,1
;   skirtExtruder,0
;   skirtLayers,1
;   skirtOutlines,3
;   skirtOffset,4
;   usePrimePillar,0
;   primePillarExtruder,999
;   primePillarWidth,12
;   primePillarLocation,7
;   primePillarSpeedMultiplier,1
;   useOozeShield,0
;   oozeShieldExtruder,999
;   oozeShieldOffset,2
;   oozeShieldOutlines,1
;   oozeShieldSidewallShape,1
;   oozeShieldSidewallAngle,30
;   oozeShieldSpeedMultiplier,1
;   infillExtruder,0
;   internalInfillPattern,Fast Honeycomb
;   externalInfillPattern,Rectilinear
;   infillPercentage,20
;   outlineOverlapPercentage,15
;   infillExtrusionWidthPercentage,100
;   minInfillLength,5
;   infillLayerInterval,1
;   internalInfillAngles,0
;   overlapInternalInfillAngles,0
;   externalInfillAngles,45,-45
;   generateSupport,1
;   supportExtruder,0
;   supportInfillPercentage,15
;   supportExtraInflation,0
;   supportBaseLayers,2
;   denseSupportExtruder,0
;   denseSupportLayers,0
;   denseSupportInfillPercentage,70
;   supportLayerInterval,1
;   supportHorizontalPartOffset,0.3
;   supportUpperSeparationLayers,1
;   supportLowerSeparationLayers,1
;   supportType,1
;   supportGridSpacing,4
;   maxOverhangAngle,55
;   supportAngles,0
;   temperatureName,Primary Extruder,Heated Bed
;   temperatureNumber,0,0
;   temperatureSetpointCount,1,1
;   temperatureSetpointLayers,1,1
;   temperatureSetpointTemperatures,205,60
;   temperatureStabilizeAtStartup,1,1
;   temperatureHeatedBed,0,1
;   fanLayers,1,3
;   fanSpeeds,0,100
;   blipFanToFullPower,0
;   adjustSpeedForCooling,1
;   minSpeedLayerTime,15
;   minCoolingSpeedSlowdown,20
;   increaseFanForCooling,0
;   minFanLayerTime,45
;   maxCoolingFanSpeed,100
;   increaseFanForBridging,0
;   bridgingFanSpeed,100
;   use5D,1
;   relativeEdistances,0
;   allowEaxisZeroing,1
;   independentExtruderAxes,0
;   includeM10123,0
;   stickySupport,1
;   applyToolheadOffsets,0
;   gcodeXoffset,0
;   gcodeYoffset,0
;   gcodeZoffset,0
;   overrideMachineDefinition,1
;   machineTypeOverride,0
;   strokeXoverride,220
;   strokeYoverride,220
;   strokeZoverride,250
;   originOffsetXoverride,-5
;   originOffsetYoverride,-5
;   originOffsetZoverride,0
;   homeXdirOverride,-1
;   homeYdirOverride,-1
;   homeZdirOverride,-1
;   flipXoverride,1
;   flipYoverride,-1
;   flipZoverride,1
;   toolheadOffsets,0,0|0,0|0,0|0,0|0,0|0,0
;   overrideFirmwareConfiguration,1
;   firmwareTypeOverride,RepRap (Marlin/Repetier/Sprinter)
;   GPXconfigOverride,r2
;   baudRateOverride,115200
;   overridePrinterModels,1
;   printerModelsOverride
;   startingGcode,G28 ; home all axes,G1 X5 Y10 Z0.2 F3000 ; get ready to prime,G92 E0 ; reset extrusion distance,G1 X160 E15 F600 ; prime nozzle,G1 X180 F5000 ; quick wipe
;   layerChangeGcode,
;   retractionGcode,
;   toolChangeGcode,
;   endingGcode,G28 X0 ; home X axis,M106 S0 ; turn off cooling fan,M104 S0 ; turn off extruder,M140 S0 ; turn off bed,M84 ; disable motors
;   exportFileFormat,gcode
;   celebration,0
;   celebrationSong,Random Song
;   postProcessing,
;   defaultSpeed,2400
;   outlineUnderspeed,0.5
;   solidInfillUnderspeed,0.8
;   supportUnderspeed,0.8
;   rapidXYspeed,9000
;   rapidZspeed,1000
;   minBridgingArea,50
;   bridgingExtraInflation,0
;   bridgingExtrusionMultiplier,1
;   bridgingSpeedMultiplier,1
;   useFixedBridgingAngle,0
;   fixedBridgingAngle,0
;   applyBridgingToPerimeters,0
;   filamentDiameters,1.75|1.75|1.75|1.75|1.75|1.75
;   filamentPricesPerKg,24|46|46|46|46|46
;   filamentDensities,1.25|1.25|1.25|1.25|1.25|1.25
;   useMinPrintHeight,0
;   minPrintHeight,0
;   useMaxPrintHeight,0
;   maxPrintHeight,9.52
;   useDiaphragm,0
;   diaphragmLayerInterval,20
;   robustSlicing,1
;   mergeAllIntoSolid,0
;   onlyRetractWhenCrossingOutline,1
;   retractBetweenLayers,1
;   useRetractionMinTravel,0
;   retractionMinTravel,3
;   retractWhileWiping,1
;   onlyWipeOutlines,1
;   avoidCrossingOutline,1
;   maxMovementDetourFactor,3
;   toolChangeRetractionDistance,12
;   toolChangeExtraRestartDistance,-0.5
;   toolChangeRetractionSpeed,600
;   externalThinWallType,0
;   internalThinWallType,2
;   thinWallAllowedOverlapPercentage,10
;   singleExtrusionMinLength,1
;   singleExtrusionMinPrintingWidthPercentage,50
;   singleExtrusionMaxPrintingWidthPercentage,200
;   singleExtrusionEndpointExtension,0.2
;   horizontalSizeCompensation,0
G90
M82
M106 S0
M140 S60
M190 S60
M104 S205 T0
M109 S205 T0
G28 ; home all axes
G1 X5 Y10 Z0.2 F3000 ; get ready to prime
G92 E0 ; reset extrusion distance
G1 X160 E15 F600 ; prime nozzle
G1 X180 F5000 ; quick wipe
; process Process1
; layer 1, Z = 0.240
T0
G92 E0.0000
G1 E-5.0000 F3600
; feature skirt
; tool H0.240 W0.600
G1 Z0.240 F1000
G1 X94.303 Y94.647 F9000
G1 E0.1000 F3600
G92 E0.0000
G1 X94.384 Y94.564 E0.0069 F1200
G1 X95.164 Y93.805 E0.0721
G1 X95.260 Y93.716 E0.0799
G1 X96.285 Y92.809 E0.1619
G1 X96.396 Y92.716 E0.1705
G1 X97.473 Y91.860 E0.2529
G1 X97.588 Y91.773 E0.2615
G1 X98.708 Y90.974 E0.3439
G1 X98.827 Y90.894 E0.3525
G1 X99.977 Y90.161 E0.4341
G1 X100.080 Y90.099 E0.4413
G1 X100.895 Y89.628 E0.4977
G1 X101.000 Y89.570 E0.5049
G1 X102.210 Y88.941 E0.5865
G1 X102.339 Y88.877 E0.5952
G1 X103.591 Y88.307 E0.6775
G1 X103.724 Y88.251 E0.6861
G1 X105.004 Y87.746 E0.7685
G1 X105.139 Y87.697 E0.7771
G1 X106.444 Y87.261 E0.8595
G1 X106.582 Y87.218 E0.8681
G1 X107.907 Y86.851 E0.9505
G1 X108.047 Y86.816 E0.9591
G1 X109.389 Y86.519 E1.0414
G1 X109.527 Y86.492 E1.0498
G1 X110.790 Y86.279 E1.1265
G1 X110.906 Y86.262 E1.1335
G1 X111.920 Y86.135 E1.1947
G1 X112.046 Y86.122 E1.2023
G1 X113.409 Y86.015 E1.2841
G1 X113.553 Y86.007 E1.2927
G1 X114.928 Y85.971 E1.3751
G1 X115.072 Y85.971 E1.3837
G1 X116.447 Y86.007 E1.4661
G1 X116.591 Y86.015 E1.4747
G1 X117.954 Y86.122 E1.5566
G1 X118.079 Y86.135 E1.5641
G1 X119.094 Y86.262 E1.6253
G1 X119.210 Y86.279 E1.6324
G1 X120.473 Y86.492 E1.7090
G1 X120.611 Y86.519 E1.7175
G1 X121.953 Y86.816 E1.7997
G1 X122.093 Y86.851 E1.8083
G1 X123.418 Y87.218 E1.8907
G1 X123.556 Y87.261 E1.8993
G1 X124.849 Y87.693 E1.9810
G1 X124.962 Y87.734 E1.9882
G1 X125.841 Y88.071 E2.0445
G1 X125.952 Y88.117 E2.0517
G1 X127.203 Y88.661 E2.1334
G1 X127.333 Y88.721 E2.1420
G1 X128.565 Y89.335 E2.2243
G1 X128.692 Y89.403 E2.2330
G1 X129.889 Y90.080 E2.3153
G1 X130.013 Y90.155 E2.3240
G1 X131.173 Y90.894 E2.4063
G1 X131.292 Y90.974 E2.4149
G1 X132.412 Y91.773 E2.4973
G1 X132.527 Y91.860 E2.5059
G1 X133.595 Y92.709 E2.5876
G1 X133.687 Y92.785 E2.5947
G1 X134.397 Y93.403 E2.6511
G1 X134.486 Y93.484 E2.6583
G1 X135.476 Y94.423 E2.7400
G1 X135.577 Y94.524 E2.7486
G1 X136.516 Y95.514 E2.8302
G1 X136.597 Y95.603 E2.8374
G1 X137.215 Y96.313 E2.8938
G1 X137.291 Y96.405 E2.9009
G1 X138.140 Y97.473 E2.9826
G1 X138.227 Y97.588 E2.9912
G1 X139.026 Y98.708 E3.0736
G1 X139.106 Y98.827 E3.0822
G1 X139.839 Y99.977 E3.1638
G1 X139.901 Y100.080 E3.1710
G1 X140.372 Y100.895 E3.2274
G1 X140.430 Y101.000 E3.2346
G1 X141.059 Y102.210 E3.3162
G1 X141.123 Y102.339 E3.3248
G1 X141.693 Y103.591 E3.4072
G1 X141.749 Y103.724 E3.4158
G1 X142.254 Y105.004 E3.4982
G1 X142.303 Y105.139 E3.5068
G1 X142.739 Y106.444 E3.5892
G1 X142.782 Y106.582 E3.5978
G1 X143.149 Y107.907 E3.6802
G1 X143.184 Y108.047 E3.6888
G1 X143.481 Y109.388 E3.7711
G1 X143.508 Y109.527 E3.7795
G1 X143.721 Y110.790 E3.8562
G1 X143.738 Y110.906 E3.8632
G1 X143.865 Y111.920 E3.9244
G1 X143.878 Y112.046 E3.9320
G1 X143.985 Y113.409 E4.0138
G1 X143.993 Y113.553 E4.0224
G1 X144.029 Y114.928 E4.1048
G1 X144.029 Y115.072 E4.1134
G1 X143.993 Y116.447 E4.1958
G1 X143.985 Y116.591 E4.2044
G1 X143.878 Y117.954 E4.2862
G1 X143.865 Y118.079 E4.2938
G1 X143.738 Y119.094 E4.3550
G1 X143.721 Y119.210 E4.3620
G1 X143.508 Y120.473 E4.4387
G1 X143.481 Y120.611 E4.4472
G1 X143.184 Y121.953 E4.5294
G1 X143.149 Y122.093 E4.5380
G1 X142.782 Y123.418 E4.6204
G1 X142.739 Y123.556 E4.6290
G1 X142.303 Y124.861 E4.7114
G1 X142.254 Y124.996 E4.7200
G1 X141.754 Y126.265 E4.8017
G1 X141.707 Y126.376 E4.8089
G1 X141.324 Y127.236 E4.8652
G1 X141.273 Y127.344 E4.8724
G1 X140.665 Y128.565 E4.9540
G1 X140.597 Y128.692 E4.9627
G1 X139.920 Y129.889 E5.0450
G1 X139.845 Y130.013 E5.0536
G1 X139.106 Y131.173 E5.1360
G1 X139.026 Y131.292 E5.1446
G1 X138.227 Y132.412 E5.2270
G1 X138.140 Y132.527 E5.2356
G1 X137.291 Y133.595 E5.3173
G1 X137.215 Y133.687 E5.3244
G1 X136.597 Y134.397 E5.3808
G1 X136.516 Y134.486 E5.3880
G1 X135.577 Y135.476 E5.4696
G1 X135.476 Y135.577 E5.4783
G1 X134.486 Y136.516 E5.5599
G1 X134.397 Y136.597 E5.5671
G1 X133.687 Y137.215 E5.6235
G1 X133.595 Y137.291 E5.6306
G1 X132.527 Y138.140 E5.7123
G1 X132.412 Y138.227 E5.7209
G1 X131.292 Y139.026 E5.8033
G1 X131.173 Y139.106 E5.8119
G1 X130.023 Y139.839 E5.8935
G1 X129.920 Y139.901 E5.9007
G1 X129.105 Y140.372 E5.9571
G1 X129.000 Y140.430 E5.9643
G1 X127.790 Y141.059 E6.0459
G1 X127.661 Y141.123 E6.0545
G1 X126.409 Y141.693 E6.1369
G1 X126.276 Y141.749 E6.1455
G1 X124.996 Y142.254 E6.2279
G1 X124.861 Y142.303 E6.2365
G1 X123.556 Y142.739 E6.3189
G1 X123.418 Y142.782 E6.3275
G1 X122.093 Y143.149 E6.4099
G1 X121.953 Y143.184 E6.4185
G1 X120.611 Y143.481 E6.5007
G1 X120.473 Y143.508 E6.5092
G1 X119.210 Y143.721 E6.5859
G1 X119.094 Y143.738 E6.5929
G1 X118.079 Y143.865 E6.6541
G1 X117.954 Y143.878 E6.6617
G1 X116.591 Y143.985 E6.7435
G1 X116.447 Y143.993 E6.7521
G1 X115.072 Y144.029 E6.8345
G1 X114.928 Y144.029 E6.8431
G1 X113.553 Y143.993 E6.9255
G1 X113.409 Y143.985 E6.9341
G1 X112.046 Y143.878 E7.0159
G1 X111.920 Y143.865 E7.0235
G1 X110.906 Y143.738 E7.0847
G1 X110.790 Y143.721 E7.0917
G1 X109.527 Y143.508 E7.1684
G1 X109.388 Y143.481 E7.1768
G1 X108.047 Y143.184 E7.2591
G1 X107.907 Y143.149 E7.2677
G1 X106.582 Y142.782 E7.3501
G1 X106.444 Y142.739 E7.3587
G1 X105.139 Y142.303 E7.4411
G1 X105.004 Y142.254 E7.4497
G1 X103.735 Y141.754 E7.5314
G1 X103.624 Y141.707 E7.5385
G1 X102.764 Y141.324 E7.5949
G1 X102.656 Y141.273 E7.6021
G1 X101.435 Y140.665 E7.6837
G1 X101.308 Y140.597 E7.6923
G1 X100.111 Y139.920 E7.7747
G1 X99.987 Y139.845 E7.7833
G1 X98.827 Y139.106 E7.8657
G1 X98.708 Y139.026 E7.8743
G1 X97.588 Y138.227 E7.9567
G1 X97.473 Y138.140 E7.9653
G1 X96.405 Y137.291 E8.0470
G1 X96.313 Y137.215 E8.0541
G1 X95.603 Y136.597 E8.1105
G1 X95.514 Y136.516 E8.1177
G1 X94.524 Y135.577 E8.1993
G1 X94.423 Y135.476 E8.2079
G1 X93.484 Y134.486 E8.2896
G1 X93.403 Y134.397 E8.2968
G1 X92.785 Y133.687 E8.3531
G1 X92.709 Y133.595 E8.3603
G1 X91.860 Y132.527 E8.4420
G1 X91.773 Y132.412 E8.4506
G1 X90.974 Y131.292 E8.5330
G1 X90.894 Y131.173 E8.5416
G1 X90.161 Y130.023 E8.6232
G1 X90.099 Y129.920 E8.6304
G1 X89.628 Y129.105 E8.6868
G1 X89.570 Y129.000 E8.6939
G1 X88.941 Y127.790 E8.7756
G1 X88.877 Y127.661 E8.7842
G1 X88.307 Y126.409 E8.8666
G1 X88.251 Y126.276 E8.8752
G1 X87.750 Y125.004 E8.9570
G1 X87.706 Y124.886 E8.9646
G1 X87.375 Y123.918 E9.0258
G1 X87.340 Y123.806 E9.0329
G1 X86.978 Y122.578 E9.1095
G1 X86.941 Y122.442 E9.1179
G1 X86.620 Y121.106 E9.2002
G1 X86.591 Y120.965 E9.2088
G1 X86.340 Y119.612 E9.2912
G1 X86.317 Y119.470 E9.2998
G1 X86.139 Y118.115 E9.3817
G1 X86.125 Y117.989 E9.3892
G1 X86.038 Y116.970 E9.4504
G1 X86.031 Y116.853 E9.4575
G1 X85.977 Y115.573 E9.5341
G1 X85.974 Y115.433 E9.5426
G1 X85.986 Y114.059 E9.6248
G1 X85.991 Y113.915 E9.6335
G1 X86.075 Y112.542 E9.7158
G1 X86.088 Y112.398 E9.7244
G1 X86.244 Y111.031 E9.8068
G1 X86.264 Y110.889 E9.8154
G1 X86.489 Y109.544 E9.8971
G1 X86.511 Y109.426 E9.9043
G1 X86.707 Y108.505 E9.9606
G1 X86.734 Y108.388 E9.9678
G1 X87.076 Y107.068 E10.0494
G1 X87.116 Y106.929 E10.0581
G1 X87.529 Y105.617 E10.1404
G1 X87.576 Y105.481 E10.1491
G1 X88.057 Y104.194 E10.2313
G1 X88.110 Y104.063 E10.2398
G1 X88.619 Y102.888 E10.3164
G1 X88.668 Y102.782 E10.3234
G1 X89.114 Y101.862 E10.3847
G1 X89.172 Y101.749 E10.3922
G1 X89.824 Y100.548 E10.4741
G1 X89.896 Y100.423 E10.4827
G1 X90.615 Y99.250 E10.5651
G1 X90.694 Y99.129 E10.5737
G1 X91.473 Y97.995 E10.6561
G1 X91.558 Y97.879 E10.6647
G1 X92.395 Y96.788 E10.7470
G1 X92.486 Y96.676 E10.7556
G1 X93.377 Y95.632 E10.8378
G1 X93.469 Y95.530 E10.8461
G1 X94.303 Y94.647 E10.9188
G92 E0.0000
G1 E-5.0000 F3600
G1 X94.735 Y95.063 F9000
G1 E0.1000 F3600
G92 E0.0000
G1 X94.807 Y94.990 E0.0062 F1200
G1 X95.578 Y94.240 E0.0706
G1 X95.663 Y94.161 E0.0775
G1 X96.677 Y93.263 E0.1586
G1 X96.775 Y93.181 E0.1663
G1 X97.840 Y92.334 E0.2477
G1 X97.942 Y92.257 E0.2554
G1 X99.050 Y91.467 E0.3368
G1 X99.156 Y91.396 E0.3445
G1 X100.294 Y90.671 E0.4253
G1 X100.385 Y90.615 E0.4317
G1 X101.189 Y90.151 E0.4873
G1 X101.283 Y90.099 E0.4937
G1 X102.480 Y89.476 E0.5744
G1 X102.595 Y89.420 E0.5821
G1 X103.833 Y88.856 E0.6635
G1 X103.951 Y88.806 E0.6712
G1 X105.216 Y88.308 E0.7527
G1 X105.337 Y88.264 E0.7603
G1 X106.627 Y87.832 E0.8418
G1 X106.750 Y87.795 E0.8495
G1 X108.060 Y87.431 E0.9309
G1 X108.185 Y87.400 E0.9385
G1 X109.511 Y87.106 E1.0199
G1 X109.634 Y87.082 E1.0274
G1 X110.883 Y86.871 E1.1032
G1 X110.986 Y86.856 E1.1095
G1 X111.988 Y86.731 E1.1699
G1 X112.100 Y86.720 E1.1766
G1 X113.448 Y86.613 E1.2576
G1 X113.576 Y86.607 E1.2653
G1 X114.936 Y86.571 E1.3467
G1 X115.064 Y86.571 E1.3544
G1 X116.424 Y86.607 E1.4358
G1 X116.552 Y86.613 E1.4435
G1 X117.900 Y86.720 E1.5245
G1 X118.012 Y86.731 E1.5312
G1 X119.014 Y86.856 E1.5916
G1 X119.117 Y86.871 E1.5979
G1 X120.366 Y87.082 E1.6737
G1 X120.489 Y87.106 E1.6812
G1 X121.815 Y87.400 E1.7626
G1 X121.940 Y87.431 E1.7702
G1 X123.250 Y87.795 E1.8517
G1 X123.373 Y87.832 E1.8593
G1 X124.653 Y88.260 E1.9401
G1 X124.753 Y88.296 E1.9465
G1 X125.620 Y88.629 E2.0021
G1 X125.719 Y88.670 E2.0085
G1 X126.957 Y89.208 E2.0893
G1 X127.073 Y89.262 E2.0970
G1 X128.290 Y89.869 E2.1784
G1 X128.403 Y89.929 E2.1861
G1 X129.587 Y90.599 E2.2675
G1 X129.697 Y90.665 E2.2752
G1 X130.844 Y91.396 E2.3566
G1 X130.950 Y91.467 E2.3643
G1 X132.058 Y92.257 E2.4457
G1 X132.160 Y92.334 E2.4534
G1 X133.216 Y93.174 E2.5342
G1 X133.298 Y93.243 E2.5406
G1 X133.999 Y93.852 E2.5961
G1 X134.078 Y93.923 E2.6026
G1 X135.057 Y94.852 E2.6833
G1 X135.148 Y94.943 E2.6910
G1 X136.076 Y95.922 E2.7718
G1 X136.148 Y96.001 E2.7782
G1 X136.757 Y96.702 E2.8338
G1 X136.826 Y96.784 E2.8402
G1 X137.666 Y97.840 E2.9210
G1 X137.743 Y97.942 E2.9287
G1 X138.533 Y99.050 E3.0101
G1 X138.604 Y99.156 E3.0178
G1 X139.329 Y100.294 E3.0985
G1 X139.385 Y100.385 E3.1049
G1 X139.849 Y101.189 E3.1605
G1 X139.901 Y101.283 E3.1669
G1 X140.524 Y102.480 E3.2477
G1 X140.580 Y102.595 E3.2554
G1 X141.144 Y103.833 E3.3368
G1 X141.194 Y103.951 E3.3445
G1 X141.692 Y105.216 E3.4259
G1 X141.736 Y105.337 E3.4336
G1 X142.168 Y106.627 E3.5150
G1 X142.205 Y106.750 E3.5227
G1 X142.569 Y108.060 E3.6041
G1 X142.600 Y108.185 E3.6118
G1 X142.894 Y109.511 E3.6931
G1 X142.918 Y109.634 E3.7007
G1 X143.129 Y110.883 E3.7765
G1 X143.144 Y110.986 E3.7827
G1 X143.269 Y111.988 E3.8432
G1 X143.280 Y112.100 E3.8499
